Badges/Roblox-Styled/Original/link-download.svg

<svg width="110" height="32" viewBox="0 0 110 32" fill="none" xmlns="http://www.w3.org/2000/svg">
<g filter="url(#filter0_i_24_178)">
<rect width="110" height="32" rx="4" fill="#335FFF"/>
<path d="M24.875 21.6875C25.1354 21.6875 25.3568 21.7786 25.5391 21.9609C25.7214 22.1432 25.8125 22.3646 25.8125 22.625C25.8125 22.8854 25.7214 23.1068 25.5391 23.2891C25.3568 23.4714 25.1354 23.5625 24.875 23.5625H11.125C10.8646 23.5625 10.6432 23.4714 10.4609 23.2891C10.2786 23.1068 10.1875 22.8854 10.1875 22.625C10.1875 22.3646 10.2786 22.1432 10.4609 21.9609C10.6432 21.7786 10.8646 21.6875 11.125 21.6875H24.875ZM18 7.9375C18.2604 7.9375 18.4818 8.02865 18.6641 8.21094C18.8464 8.39323 18.9375 8.61458 18.9375 8.875V16.6094L21.0859 14.4609C21.2682 14.2786 21.4896 14.1875 21.75 14.1875C22.0104 14.1875 22.2318 14.2786 22.4141 14.4609C22.5964 14.6432 22.6875 14.8646 22.6875 15.125C22.6875 15.3854 22.5964 15.6068 22.4141 15.7891L18.6641 19.5391C18.4818 19.7214 18.2604 19.8125 18 19.8125C17.7396 19.8125 17.5182 19.7214 17.3359 19.5391L13.5859 15.7891L13.5273 15.7207C13.3711 15.5319 13.2995 15.3171 13.3125 15.0762C13.3255 14.8353 13.4167 14.6302 13.5859 14.4609C13.7552 14.2917 13.9603 14.2005 14.2012 14.1875C14.4421 14.1745 14.6569 14.2428 14.8457 14.3926L14.9141 14.4609L17.0625 16.6094V8.875C17.0625 8.61458 17.1536 8.39323 17.3359 8.21094C17.5182 8.02865 17.7396 7.9375 18 7.9375Z" fill="white"/>
<path d="M35.355 12.3C37.555 12.3 39.084 13.466 39.084 16.15C39.084 18.834 37.555 20 35.355 20H32.814V12.3H35.355ZM34.31 18.548H35.421C36.664 18.548 37.544 17.8 37.544 16.15C37.544 14.5 36.664 13.752 35.421 13.752H34.31V18.548ZM42.7221 20.11C40.9731 20.11 39.8731 18.9 39.8731 17.118C39.8731 15.336 40.9731 14.126 42.7221 14.126C44.4711 14.126 45.5711 15.336 45.5711 17.118C45.5711 18.9 44.4711 20.11 42.7221 20.11ZM42.7331 18.812C43.5691 18.812 44.1411 18.196 44.1411 17.118C44.1411 16.04 43.5691 15.424 42.7331 15.424C41.8971 15.424 41.3031 16.04 41.3031 17.118C41.3031 18.196 41.8971 18.812 42.7331 18.812ZM49.0883 20H47.4273L46.1623 14.236H47.6913L48.3183 18.174H48.4503L49.5063 14.236H51.1343L52.1903 18.174H52.3223L52.9493 14.236H54.4783L53.2133 20H51.5523L50.3863 15.897H50.2543L49.0883 20ZM56.7893 20H55.3813V14.236H56.7893V15.05L56.9653 15.116C57.2513 14.555 57.7683 14.126 58.6263 14.126C59.9023 14.126 60.5953 14.995 60.5953 16.293V20H59.1873V16.667C59.1873 15.798 58.7473 15.424 58.0543 15.424C57.4823 15.424 57.0203 15.743 56.7893 16.194V20ZM63.4065 20H61.9985V12.19H63.4065V20ZM67.3969 20.11C65.6479 20.11 64.5479 18.9 64.5479 17.118C64.5479 15.336 65.6479 14.126 67.3969 14.126C69.1459 14.126 70.2459 15.336 70.2459 17.118C70.2459 18.9 69.1459 20.11 67.3969 20.11ZM67.4079 18.812C68.2439 18.812 68.8159 18.196 68.8159 17.118C68.8159 16.04 68.2439 15.424 67.4079 15.424C66.5719 15.424 65.9779 16.04 65.9779 17.118C65.9779 18.196 66.5719 18.812 67.4079 18.812ZM72.9161 20.11C71.9481 20.11 71.0791 19.516 71.0791 18.295C71.0791 17.195 71.8711 16.48 73.4221 16.48H74.7641V16.381C74.7641 15.6 74.3021 15.336 73.6971 15.336C73.0591 15.336 72.5531 15.611 71.9371 16.073L71.2661 15.028C71.9701 14.5 72.7841 14.126 73.7301 14.126C75.1491 14.126 76.1721 14.709 76.1721 16.337V20H74.7641V19.351L74.5881 19.285C74.1921 19.824 73.6751 20.11 72.9161 20.11ZM73.3781 18.9C73.9941 18.9 74.4781 18.559 74.7641 18.152V17.492H73.4001C72.8171 17.492 72.4871 17.734 72.4871 18.196C72.4871 18.625 72.8501 18.9 73.3781 18.9ZM79.7293 20.11C78.3873 20.11 77.3203 19.087 77.3203 17.118C77.3203 15.182 78.4863 14.126 80.1473 14.126C80.6643 14.126 81.1923 14.258 81.5333 14.445V12.19H82.9413V20H81.5333V19.186L81.3573 19.12C81.0383 19.813 80.4553 20.11 79.7293 20.11ZM80.1363 18.812C80.6863 18.812 81.2583 18.57 81.5333 18.042V15.71C81.1813 15.501 80.7303 15.424 80.2903 15.424C79.4323 15.424 78.7503 15.952 78.7503 17.118C78.7503 18.174 79.2233 18.812 80.1363 18.812Z" fill="white"/>
<path d="M93.625 11.1875C93.7812 11.1875 93.9141 11.2422 94.0234 11.3516C94.1328 11.4609 94.1875 11.5938 94.1875 11.75C94.1875 11.9062 94.1328 12.0391 94.0234 12.1484C93.9141 12.2578 93.7812 12.3125 93.625 12.3125H90.0625V20.1875H97.9375V16.625C97.9375 16.4688 97.9922 16.3359 98.1016 16.2266C98.2109 16.1172 98.3438 16.0625 98.5 16.0625C98.6562 16.0625 98.7891 16.1172 98.8984 16.2266C99.0078 16.3359 99.0625 16.4688 99.0625 16.625V20.375C99.0625 20.543 99.0195 20.6992 98.9336 20.8438C98.8516 20.9883 98.7383 21.1016 98.5938 21.1836C98.4492 21.2695 98.293 21.3125 98.125 21.3125H89.875C89.707 21.3125 89.5508 21.2695 89.4062 21.1836C89.2617 21.1016 89.1465 20.9883 89.0605 20.8438C88.9785 20.6992 88.9375 20.543 88.9375 20.375V12.125C88.9375 11.957 88.9785 11.8008 89.0605 11.6562C89.1465 11.5117 89.2617 11.3984 89.4062 11.3164C89.5508 11.2305 89.707 11.1875 89.875 11.1875H93.625ZM98.5 11.1875C98.6562 11.1875 98.7891 11.2422 98.8984 11.3516C99.0078 11.4609 99.0625 11.5938 99.0625 11.75V14C99.0625 14.1562 99.0078 14.2891 98.8984 14.3984C98.7891 14.5078 98.6562 14.5625 98.5 14.5625C98.3438 14.5625 98.2109 14.5078 98.1016 14.3984C97.9922 14.2891 97.9375 14.1562 97.9375 14V13.1094L94.3984 16.6484C94.2891 16.7578 94.1562 16.8125 94 16.8125C93.8438 16.8125 93.7109 16.7578 93.6016 16.6484C93.4922 16.5391 93.4375 16.4062 93.4375 16.25C93.4375 16.0938 93.4922 15.9609 93.6016 15.8516L97.1406 12.3125H96.25C96.0938 12.3125 95.9609 12.2578 95.8516 12.1484C95.7422 12.0391 95.6875 11.9062 95.6875 11.75C95.6875 11.5938 95.7422 11.4609 95.8516 11.3516C95.9609 11.2422 96.0938 11.1875 96.25 11.1875H98.5Z" fill="white"/>
</g>
<defs>
<filter id="filter0_i_24_178" x="0" y="-2" width="110" height="34" filterUnits="userSpaceOnUse" color-interpolation-filters="sRGB">
<feFlood flood-opacity="0" result="BackgroundImageFix"/>
<feBlend mode="normal" in="SourceGraphic" in2="BackgroundImageFix" result="shape"/>
<feColorMatrix in="SourceAlpha" type="matrix" values="0 0 0 0 0 0 0 0 0 0 0 0 0 0 0 0 0 0 127 0" result="hardAlpha"/>
<feOffset dy="-2"/>
<feGaussianBlur stdDeviation="1.65"/>
<feComposite in2="hardAlpha" operator="arithmetic" k2="-1" k3="1"/>
<feColorMatrix type="matrix" values="0 0 0 0 1 0 0 0 0 1 0 0 0 0 1 0 0 0 0.11 0"/>
<feBlend mode="normal" in2="shape" result="effect1_innerShadow_24_178"/>
</filter>
</defs>
</svg>

<svg xmlns="http://www.w3.org/2000/svg" width="110" height="32" fill="none">
  <g filter="url(#a)">
    <rect width="110" height="32" fill="#335fff" rx="4"/>
    <path fill="#fff" d="M24.875 21.688q.39 0 .664.273a.9.9 0 0 1 .273.664q0 .39-.273.664a.9.9 0 0 1-.664.273h-13.75a.9.9 0 0 1-.664-.273.9.9 0 0 1-.274-.664q0-.39.274-.664a.9.9 0 0 1 .664-.273zM18 7.938q.39 0 .664.273a.9.9 0 0 1 .273.664v7.734l2.149-2.148a.9.9 0 0 1 .664-.274q.39 0 .664.274a.9.9 0 0 1 .273.664q0 .39-.273.664l-3.75 3.75a.9.9 0 0 1-.664.273.9.9 0 0 1-.664-.273l-3.75-3.75-.059-.068a.9.9 0 0 1-.214-.645.9.9 0 0 1 .273-.615q.254-.254.615-.274a.92.92 0 0 1 .645.206l.068.068 2.149 2.148V8.875q0-.39.273-.664A.9.9 0 0 1 18 7.937M35.355 12.3c2.2 0 3.729 1.166 3.729 3.85S37.555 20 35.355 20h-2.541v-7.7zm-1.045 6.248h1.111c1.243 0 2.123-.748 2.123-2.398s-.88-2.398-2.123-2.398H34.31zm8.412 1.562c-1.749 0-2.849-1.21-2.849-2.992s1.1-2.992 2.85-2.992c1.748 0 2.848 1.21 2.848 2.992s-1.1 2.992-2.849 2.992m.011-1.298c.836 0 1.408-.616 1.408-1.694s-.572-1.694-1.408-1.694-1.43.616-1.43 1.694.594 1.694 1.43 1.694M49.088 20h-1.66l-1.266-5.764h1.53l.626 3.938h.132l1.056-3.938h1.628l1.056 3.938h.132l.627-3.938h1.53L53.212 20h-1.66l-1.167-4.103h-.132zm7.701 0h-1.408v-5.764h1.408v.814l.176.066c.286-.561.803-.99 1.661-.99 1.276 0 1.97.869 1.97 2.167V20h-1.409v-3.333c0-.869-.44-1.243-1.133-1.243-.572 0-1.034.319-1.265.77zm6.618 0h-1.408v-7.81h1.407zm3.99.11c-1.75 0-2.85-1.21-2.85-2.992s1.1-2.992 2.85-2.992 2.849 1.21 2.849 2.992-1.1 2.992-2.85 2.992m.01-1.298c.837 0 1.409-.616 1.409-1.694s-.572-1.694-1.408-1.694-1.43.616-1.43 1.694.594 1.694 1.43 1.694m5.51 1.298c-.969 0-1.838-.594-1.838-1.815 0-1.1.792-1.815 2.343-1.815h1.342v-.099c0-.781-.462-1.045-1.067-1.045-.638 0-1.144.275-1.76.737l-.67-1.045c.703-.528 1.517-.902 2.463-.902 1.42 0 2.442.583 2.442 2.211V20h-1.408v-.649l-.176-.066c-.396.539-.913.825-1.672.825m.461-1.21c.616 0 1.1-.341 1.386-.748v-.66H73.4c-.583 0-.913.242-.913.704 0 .429.363.704.891.704m6.351 1.21c-1.342 0-2.409-1.023-2.409-2.992 0-1.936 1.166-2.992 2.827-2.992.517 0 1.045.132 1.386.319V12.19h1.408V20h-1.408v-.814l-.176-.066c-.319.693-.902.99-1.628.99m.407-1.298c.55 0 1.122-.242 1.397-.77V15.71c-.352-.209-.803-.286-1.243-.286-.858 0-1.54.528-1.54 1.694 0 1.056.473 1.694 1.386 1.694m13.489-7.624q.235 0 .398.164.165.164.165.398t-.165.398a.54.54 0 0 1-.398.165h-3.562v7.874h7.874v-3.562q0-.235.165-.398a.54.54 0 0 1 .398-.165q.235 0 .398.165.165.164.165.398v3.75a.9.9 0 0 1-.13.469.9.9 0 0 1-.34.34.9.9 0 0 1-.468.128h-8.25a.9.9 0 0 1-.469-.128.93.93 0 0 1-.346-.34.93.93 0 0 1-.123-.469v-8.25q0-.252.124-.469a.93.93 0 0 1 .345-.34.9.9 0 0 1 .469-.129zm4.875 0q.235 0 .398.164.165.164.165.398V14q0 .235-.165.398a.54.54 0 0 1-.398.165.54.54 0 0 1-.398-.165.54.54 0 0 1-.165-.398v-.89l-3.539 3.538a.54.54 0 0 1-.398.165.54.54 0 0 1-.398-.165.54.54 0 0 1-.165-.398q0-.235.165-.398l3.539-3.54h-.891a.54.54 0 0 1-.398-.164.54.54 0 0 1-.165-.398q0-.235.165-.398a.54.54 0 0 1 .398-.165z"/>
  </g>
  <defs>
    <filter id="a" width="110" height="34" x="0" y="-2" color-interpolation-filters="sRGB" filterUnits="userSpaceOnUse">
      <feFlood flood-opacity="0" result="BackgroundImageFix"/>
      <feBlend in="SourceGraphic" in2="BackgroundImageFix" result="shape"/>
      <feColorMatrix in="SourceAlpha" result="hardAlpha" values="0 0 0 0 0 0 0 0 0 0 0 0 0 0 0 0 0 0 127 0"/>
      <feOffset dy="-2"/>
      <feGaussianBlur stdDeviation="1.65"/>
      <feComposite in2="hardAlpha" k2="-1" k3="1" operator="arithmetic"/>
      <feColorMatrix values="0 0 0 0 1 0 0 0 0 1 0 0 0 0 1 0 0 0 0.11 0"/>
      <feBlend in2="shape" result="effect1_innerShadow_24_178"/>
    </filter>
  </defs>
</svg>
